X:1
T:Siubhail a Gradh
T:Trad. arr. Wim Verkaik
T:Go, go , go oh love, no cure can be obtained but the cure of death, O you left me and my leg is sore, and you will come back unblemished, my lover.
T:Siubhail a Gradh
C:Trad. arr. Wim Verkaik
%%score [ 1 2 3 4 ]
L:1/8
Q:1/4=90
M:4/4
K:C
V:1 treble nm="Soprano" snm="S"
V:2 treble nm="Alto" snm="A"
V:3 treble-8 nm="Tenor" snm="T"
V:4 bass nm="Bass" snm="B"
V:1
 c4 B4 | A3 E E3 F | G3 E c3 B | A2 D2 D2 CD | E2 ED C2 D2 | E2 A2 c2 cd | edcA BG AB | A6 E2 | %8
w: Siubhail, siubhail,|siubhail a gradh, Ni|leigheas le faghail acht|leigheas an bhais, O _|d'fhag tu _ mise is|bocht mo chas, Is go|dtei- dhidh tu a mhuir- * nin _|slan. I|
 A3 B c2 B2 | A2 E2 E3 F | G3 E c3 B | A2 D2 D2 CD | E2 ED C2 D2 | E2 A2 c2 cd | edcA BGAB | %15
w: wish I were on|yon green hill, 'tIs|there I'd sit and|cry my fill, And _|ev'- ry _ tear would|turn a mill. My _|dar- ling and my life I love you|
 A6 z2 | c4 B4 | A3 E E3 F | G3 E c3 B | A2 D2 D2 CD | E2 ED C2 D2 | E2 A2 c2 cd | edcA BG AB | %23
w: so.|Siubhail, siubhail,|siubhail a gradh, Ni|leigheas le faghail acht|leigheas an bhais, O _|d'fhag tu _ mise is|bocht mo chas, Is go|dtei- dhidh tu a mhuir- * nin _|
 A6 z2 | z8 | z2 E2 A3 B | c2 B2 A2 E2 | E3 F G3 E | c3 B A2 D2 | C2 E2 A2 AB | cBAE GEFG | A6 z2 | %32
w: slan.||I'll sell my|rack, I'll sell my|reel, I'll sell my|on- ly spin- ning|wheel, _ _ My _|dar- ling and my life I love you|so.|
 c4 B4 | A3 E E3 F | G3 E c3 B | A2 D2 D2 CD | E2 ED C2 D2 | E2 A2 c2 cd | edcA BG AB | A6 z2 | %40
w: Siubhail, siubhail,|siubhail a gradh, Ni|leigheas le faghail acht|leigheas an bhais, O _|d'fhag tu _ mise is|bocht mo chas, Is go|dtei- dhidh tu a mhuir- * nin _|slan.|
 z8 | z8 | z4 z2 E2 | A3 B c2 B2 | A2 E2 E3 D | A,2 C2 F2 FG | AGFC EB,CD | E6 z2 | c4 B4 | %49
w: ||But|now my love has|gone to France, has|gone to France, My _|dar- ling and my life I love you|so.|Siubhail, siubhail,|
 A3 E E3 F | G3 E c3 B | A2 D2 D2 CD | E2 ED C2 D2 | E2 A2 !fermata!c2 cd | edcA BG AB | A6 z2 |] %56
w: siubhail a gradh, Ni|leigheas le faghail acht|leigheas an bhais, O _|d'fhag tu _ mise is|bocht mo chas, Is go|dtei- dhidh tu a mhuir- * nin _|slan.|
V:2
 E4 G4 | E3 C C3 D | E3 E A3 G | F2 D2 D2 CB, | C2 CB, B,2 B,2 | C2 E2 F2 AB | cBAE GE F[DG] | %7
w: Siubhail, siubhail,|siubhail a gradh, Ni|leigheas le faghail acht|leigheas an bhais, O _|d'fhag tu _ mise is|bocht mo chas, Is go|dtei- dhidh tu a mhuir- * nin _|
 [CA]6 z2 |"^Mezzo" z8 | z2 E2 A3 B | c2 B2 A2 E2 | E3 F G3 E | c3 B A2 D2 | C2 E2 A2 AB | %14
w: slan.||I wish I|were on yon green|hill, 'tIs there I'd|sit and cry my|fill, _ _ My _|
 cBAE GEFG |"^Alt" A6 z2 | E4 G4 | E3 C C3 D | E3 E A3 G | F2 D2 D2 CB, | C2 CB, B,2 B,2 | %21
w: dar- ling and my life I love you|so.|Siubhail, siubhail,|siubhail a gradh, Ni|leigheas le faghail acht|leigheas an bhais, O _|d'fhag tu _ mise is|
 C2 E2 F2 AB | cBAE GE F[DG] |"^Mezzo" [CA]6 E2 | A3 B c2 B2 | A2 E2 E3 F | G3 E c3 B | %27
w: bocht mo chas, Is go|dtei- dhidh tu a mhuir- * nin _|slan. I'll|sell my rack, I'll|sell my reel, I'll|sell my on- ly|
 A2 D2 D2 CD | E2 ED C2 D2 | E2 A2 c2 cd | edcA BGAB |"^Alt" A6 z2 | E4 G4 | E3 C C3 D | %34
w: spin- ning wheel, To _|buy my _ love a|sword of steel, My _|dar- ling and my life I love you|so.|Siubhail, siubhail,|siubhail a gradh, Ni|
 E3 E A3 G | F2 D2 D2 CB, | C2 CB, B,2 B,2 | C2 E2 F2 AB | cBAE GE F[DG] | [CA]6 z2 |"^Mezzo" z8 | %41
w: leigheas le faghail acht|leigheas an bhais, O _|d'fhag tu _ mise is|bocht mo chas, Is go|dtei- dhidh tu a mhuir- * nin _|slan.||
 z2 E2 A3 B | c2 B2 A2 E2 | E3 F G3 E | c3 B A2 D2 | C2 E2 A2 AB | cBAE GEFG |"^Alt" A6 z2 | %48
w: But now my|love has gone to|France, To try his|for- tune to ad-|vance, _ _ My _|dar- ling and my life I love you|so.|
 E4 G4 | E3 C C3 D | E3 E A3 G | F2 D2 D2 CB, | C2 CB, B,2 B,2 | C2 E2 !fermata!F2 AB | %54
w: Siubhail, siubhail,|siubhail a gradh, Ni|leigheas le faghail acht|leigheas an bhais, O _|d'fhag tu _ mise is|bocht mo chas, Is go|
 cBAE GE F[DG] | [^CA]6 z2 |] %56
w: dtei- dhidh tu a mhuir- * nin _|slan.|
V:3
 A4 d4 | c2 B2 A4 | B4 G4 | c2 c2 B4 | G4 G2 F2 | E2 E2 A4 | A4 G2 F2 | E6 z2 |"^Alt" z8 | z8 | %10
w: Siubhail, siubhail,|siubhail a gradh,|Siubhail, siubhail,|siubhail a gradh,|Siubhail, siubhail, _|siubhail a gradh,|Siubhail, a _|gradh,|||
 z4 z2 e2 | a3 b c'2 b2 | a2 e2 e3 d | A2 c2 f2 fg | agfc eBcd |"^Tenor" e6 z2 | A4 d4 | c2 B2 A4 | %18
w: I|wish I were on|yon green hill, on|yon green hill, My _|dar- ling and my life I love you|so.|Siubhail, siubhail,|siubhail a gradh,|
 B4 G4 | c2 c2 B4 | G4 G2 F2 | E2 E2 A4 | A4 G2 F2 | E6 z2 |"^Alt" z8 | z8 | z4 z2 e2 | %27
w: Siubhail, siubhail,|siubhail a gradh,|Siubhail, siubhail, _|siubhail a gradh,|Siubhail, a _|gradh,|||I'll|
 a3 b c'2 b2 | a2 e2 e3 d | A2 c2 f2 fg | agfc eBcd |"^Tenor" e6 z2 | A4 d4 | c2 B2 A4 | B4 G4 | %35
w: sell my rack, I'll|sell my reel, I'll|sell my reel, My _|dar- ling and my life I love you|so.|Siubhail, siubhail,|siubhail a gradh,|Siubhail, siubhail,|
 c2 c2 B4 | G4 G2 F2 | E2 E2 A4 | A4 G2 F2 |"^Alt" E6 e2 | a3 b c'2 b2 | a2 e2 e3 f | g3 e c'3 b | %43
w: siubhail a gradh,|Siubhail, siubhail, _|siubhail a gradh,|siubhail a _|gradh, But|now my love has|gone to France, To|try his for- tune|
 a2 d2 d2 cd | e2 ed c2 d2 | e2 a2 c'2 c'd' | e'd'c'a bgab |"^Tenor" a6 z2 | A4 d4 | c2 B2 A4 | %50
w: to ad- vance, If _|he come _ back, 'tis|but a chance, My _|dar- ling and my life I love you|so.|Siubhail, siubhail,|siubhail a gradh,|
 B4 G4 | c2 c2 B4 | G4 G2 F2 | E2 E2 !fermata!A4 | A4 G2 F2 | E6 z2 |] %56
w: Siubhail, siubhail,|siubhail a gradh,|Siubhail, siubhail, _|siubhail a gradh,|siubhail a _|gradh,|
V:4
 A,,4 A,,4 | A,,2 B,,2 C,2 D,2 | E,4 E,4 | F,2 ^F,2 G,4 | C,4 B,,4 | A,,2 E,2 F,4 | E,4 E,2 D,2 | %7
w: Siubhail, siubhail,|siubhail a gradh, _|Siubhail, siubhail,|siubhail a gradh,|Siubhail, siubhail,|siubhail a gradh,|Siubhail, a _|
 A,,6 z2 | z8 | z8 | z8 | z8 | z8 | z8 | z8 | z8 | A,,4 A,,4 | A,,2 B,,2 C,2 D,2 | E,4 E,4 | %19
w: gradh,|||||||||Siubhail, siubhail,|siubhail a gradh, _|Siubhail, siubhail,|
 F,2 ^F,2 G,4 | C,4 B,,4 | A,,2 E,2 F,4 | E,4 E,2 D,2 | A,,6 z2 | z8 | z8 | z8 | z8 | z8 | z8 | %30
w: siubhail a gradh,|Siubhail, siubhail,|siubhail a gradh,|Siubhail, a _|gradh,|||||||
 z8 | z8 | A,,4 A,,4 | A,,2 B,,2 C,2 D,2 | E,4 E,4 | F,2 ^F,2 G,4 | C,4 B,,4 | A,,2 E,2 F,4 | %38
w: ||Siubhail, siubhail,|siubhail a gradh, _|Siubhail, siubhail,|siubhail a gradh,|Siubhail, siubhail,|siubhail a gradh,|
 E,4 E,2 D,2 | A,,6 z2 | z8 | z8 | z8 | z8 | z8 | z8 | z8 | z8 | A,,4 A,,4 | A,,2 B,,2 C,2 D,2 | %50
w: siubhail a _|gradh,|||||||||Siubhail, siubhail,|siubhail a gradh, _|
 E,4 E,4 | F,2 ^F,2 G,4 | C,4 B,,4 | A,,2 E,2 !fermata!F,4 | E,4 E,2 D,2 | A,,6 z2 |] %56
w: Siubhail, siubhail,|siubhail a gradh,|Siubhail, siubhail,|siubhail a gradh,|siubhail a _|gradh,|

